images/icon-arrow.svg

<svg width="6" height="8" viewBox="0 0 6 8" fill="none" xmlns="http://www.w3.org/2000/svg">
<path d="M4.88934 3.57515L1.08934 0.175146C0.889339 -0.0248535 0.489339 -0.0248535 0.189339 0.175146C-0.110661 0.375147 -0.0106609 0.775146 0.189339 0.975146L3.48934 3.97515L0.289339 6.97515C0.0893391 7.17515 0.0893391 7.57515 0.289339 7.77515C0.289339 7.87515 0.589339 7.97515 0.689339 7.97515C0.789339 7.97515 0.989339 7.87515 1.08934 7.77515L4.88934 4.37515C5.18934 4.17515 5.18934 3.77515 4.88934 3.57515Z" fill="black"/>
</svg>

<svg width="6" height="8" fill="none" xmlns="http://www.w3.org/2000/svg"><path d="M4.89 3.58 1.09.18c-.2-.2-.6-.2-.9 0-.3.2-.2.6 0 .8l3.3 3-3.2 3c-.2.2-.2.6 0 .8 0 .1.3.2.4.2.1 0 .3-.1.4-.2l3.8-3.4c.3-.2.3-.6 0-.8Z" fill="#000"/></svg>
